X:1
T:Lo, he comes with clouds descending
T:Lo, he comes with clouds descending - Judgment (John Fawcett)
C:John Fawcett
Z:p7, A New Set of Sacred
Z:Music, London: [c1811]
%%score [ 1 2 3 4 ]
L:1/8
M:4/4
K:Bb
V:1 treble nm="SOPRANO" snm="S."
V:2 treble nm="ALTO" snm="A."
V:3 treble-8 transpose=-12 nm="TENOR" snm="T."
V:4 bass nm="BASS" snm="B."
V:1
 B2 F2 D2 F2 | B2 (B>c) (d>c) B2 | (ABc)B A2 B2 | (AG)(AB) A4 | B2 F2 D2 F2 | B2 (B>c) (d>c) B2 | %6
w: The dear to- kens|of his _ pas- * sion|Still _ _ his dazz- ling|bo- * dy _ bears,|Cause of end- less|ex- ul- * ta- * tion|
w: Lo, he comes with|clouds des- * cend- * ing,|Once _ _ for fa- vour’d|sin- * ners _ slain;|Thou- sand thou- sand|saints at- * tend- * ing|
w: Ev- ’ry eye shall|now be- * hold _ him,|Rob’d _ _ in dread- ful|ma- * jes- * ty:|Those who set at|nought and _ sold _ him,|
 (cAB)c d2 (BG) | F2 F2 F4 | (BAB)c d2 d2 |!p! (ABc)d c2 c2 |!f! (BAB)c (dc) B2 | B2 d2 e2 e2 | %12
w: To _ _ his ran- som’d _|wor- ship- pers:|With _ _ what rap- ture,|with _ _ what rap- ture,|with _ _ what rap- * ture|Gaze we on those|
w: Swell _ _ the tri- umph _|of his train.|Hal- * * le- lu- jah,|hal- * * le- lu- jah,|hal- * * le- lu- * jah,|God ap- pears on|
w: Pierc’d _ _ and nail’d him _|to the tree,|Deep- * * ly wail- ing,|deep- * * ly wail- ing,|deep- * * ly wail- * ing,|Shall the true Mes-|
 d2 c2 d4 |] %13
w: glor- ious scars!|
w: earth to reign.|
w: si- ah see.|
V:2
 B2 F2 D2 F2 | B2 (B>c) (d>c) B2 | F3 F F2 F2 | F2 F2 F4 | B2 F2 D2 F2 | B2 (B>c) (d>c) B2 | %6
w: The dear to- kens|of his _ pas- * sion|Still his dazz- ling|bo- dy bears,|Cause of end- less|ex- ul- * ta- * tion|
w: Lo, he comes with|clouds des- * cend- * ing,|Once for fa- vour’d|sin- ners slain;|Thou- sand thou- sand|saints at- * tend- * ing|
w: Ev- ’ry eye shall|now be- * hold _ him,|Rob’d in dread- ful|ma- jes- ty:|Those who set at|nought and _ sold _ him,|
 F3 F F2 (GE) | D2 C2 D4 | F3 F F2 F2 | z8 | F3 F D2 E2 | F2 F2 G2 G2 | F2 F2 F4 |] %13
w: To his ran- som’d _|wor- ship- pers:|With what rap- ture,||with what rap- ture,|Gaze we on those|glor- ious scars!|
w: Swell the tri- umph _|of his train.|Hal- le- lu- jah,||hal- le- lu- jah,|God ap- pears on|earth to reign.|
w: Pierc’d and nail’d him _|to the tree,|Deep- ly wail- ing,||deep- ly wail- ing,|Shall the true Mes-|si- ah see.|
V:3
 B2 F2 D2 F2 | B2 (B>c) (d>c) B2 | c3 d e2 d2 | (cB)(cd) c4 | B2 F2 D2 F2 | B2 (B>c) (d>c) B2 | %6
w: The dear to- kens|of his _ pas- * sion|Still his dazz- ling|bo- * dy _ bears,|Cause of end- less|ex- ul- * ta- * tion|
w: Lo, he comes with|clouds des- * cend- * ing,|Once for fa- vour’d|sin- * ners _ slain;|Thou- sand thou- sand|saints at- * tend- * ing|
w: Ev- ’ry eye shall|now be- * hold _ him,|Rob’d in dread- ful|ma- * jes- * ty:|Those who set at|nought and _ sold _ him,|
 f3 e (dB)(Gc) | B2 A2 B4 | (dcd)c B2 B2 | z8 | (dcd)c (BA) G2 | F2 B2 G2 c2 | B2 A2 B4 |] %13
w: To his ran- * som’d _|wor- ship- pers:|With _ _ what rap- ture,||with _ _ what rap- * ture,|Gaze we on those|glor- ious scars!|
w: Swell the tri- * umph _|of his train.|Hal- * * le- lu- jah,||hal- * * le- lu- * jah,|God ap- pears on|earth to reign.|
w: Pierc’d and nail’d _ him _|to the tree,|Deep- * * ly wail- ing,||deep- * * ly wail- * ing,|Shall the true Mes-|si- ah see.|
V:4
 B,2"^8ves" F,2 D,2 F,2 | B,2 (B,>C) (D>C) B,2 | (F,G,"^6"A,)B,"^643" C2 B,2 | F,2 F,2 F,4 | %4
w: The dear to- kens|of his _ pas- * sion|Still _ _ his dazz- ling|bo- dy bears,|
w: Lo, he comes with|clouds des- * cend- * ing,|Once _ _ for fa- vour’d|sin- ners slain;|
w: Ev- ’ry eye shall|now be- * hold _ him,|Rob’d _ _ in dread- ful|ma- jes- ty:|
 B,2"^8ves" F,2 D,2 F,2 | B,2 (B,>C) (D>C) B,2 |"^6" (A,F,G,)"^65"A, B,2 E,2 | %7
w: Cause of end- less|ex- ul- * ta- * tion|To _ _ his ran- som’d|
w: Thou- sand thou- sand|saints at- * tend- * ing|Swell _ _ the tri- umph|
w: Those who set at|nought and _ sold _ him,|Pierc’d _ _ and nail’d him|
"^64" F,2"^53" F,2 B,,4 | %8
w: wor- ship- pers:|
w: of his train.|
w: to the tree,|
"^Notes:The alto part is printed in the source in the treble clef, an octave above sounding pitch. It has here been given anoctave lower (in accordance with modern convention), with the exception of bars 1, 2, 5 and 6, which are notatedat the same octave as in the source, as potentially more comfortable for some altos.The first verse only of the text is underlaid in the source: three subsequent verses have been added editorially." (B,F,"^6"D,)F, B,2 B,,2 | %9
w: With _ _ what rap- ture,|
w: Hal- * * le- lu- jah,|
w: Deep- * * ly wail- ing,|
 (F,"^3ds"G,A,)B, F,2 F,2 | (B,F,"^6"D,)F, B,,2 E,2 |"^6" D,2 B,,2 E,2 C,2 | %12
w: with _ _ what rap- ture,|with _ _ what rap- ture|Gaze we on those|
w: hal- * * le- lu- jah,|hal- * * le- lu- jah,|God ap- pears on|
w: deep- * * ly wail- ing,|deep- * * ly wail- ing,|Shall the true Mes-|
"^64" F,2"^53" [F,,F,]2 B,,4 |] %13
w: glor- ious scars!|
w: earth to reign.|
w: si- ah see.|

